src/assets/svg/icons/csharp-icon.svg

<svg width="80px" height="80px" viewBox="0 0 90 100" fill="none" xmlns="http://www.w3.org/2000/svg">
<path d="M89.0821 29.1969C89.0814 27.532 88.7254 26.0609 88.0053 24.7986C87.298 23.5566 86.2387 22.516 84.8179 21.6932C73.0895 14.9305 61.3497 8.18855 49.6251 1.419C46.4643 -0.405842 43.3995 -0.33897 40.2621 1.51207C35.5938 4.26483 12.2215 17.6554 5.25689 21.6894C2.38865 23.3502 0.992963 25.8913 0.992274 29.1938C0.987793 42.794 0.992274 56.3941 0.987793 69.9942C0.987793 71.6225 1.32939 73.0655 2.01775 74.3088C2.72542 75.588 3.7995 76.6572 5.2531 77.4986C12.2181 81.5327 35.5935 94.9221 40.2607 97.676C43.3995 99.528 46.4643 99.5942 49.6262 97.769C61.3511 90.9991 73.0916 84.2572 84.8217 77.4945C86.2753 76.6534 87.3493 75.5835 88.057 74.3053C88.7443 73.0617 89.0866 71.6191 89.0866 69.9904C89.0866 69.9904 89.0866 42.7974 89.0821 29.1969Z" fill="#A179DC"/>
<path d="M45.1721 49.4614L2.01782 74.3087C2.72549 75.5879 3.79957 76.6572 5.25317 77.4986C12.2182 81.5326 35.5936 94.9221 40.2608 97.6759C43.3996 99.5279 46.4643 99.5941 49.6262 97.769C61.3512 90.9991 73.0916 84.2571 84.8217 77.4944C86.2753 76.6534 87.3494 75.5834 88.0571 74.3053L45.1721 49.4614Z" fill="#280068"/>
<path d="M89.0823 29.197C89.0816 27.5321 88.7256 26.0609 88.0055 24.7986L45.1721 49.4619L88.0572 74.3054C88.7445 73.0618 89.0861 71.6192 89.0868 69.9905C89.0868 69.9905 89.0868 42.7974 89.0823 29.197Z" fill="#390091"/>
<path d="M70.5797 40.1729V44.8173H75.2241V40.1729H77.5464V44.8173H82.1909V47.1396H77.5464V51.7837H82.1909V54.1059H77.5464V58.7504H75.2241V54.1059H70.5797V58.7504H68.2574V54.1059H63.6133V51.7837H68.2574V47.1396H63.6133V44.8173H68.2574V40.1729H70.5797ZM75.2241 47.1392H70.5797V51.7837H75.2241V47.1392Z" fill="white"/>
<path d="M45.2668 16.8478C57.3809 16.8478 67.9573 23.4267 73.6224 33.2058L73.5672 33.1117L59.3139 41.3183C56.506 36.5639 51.3583 33.3551 45.4526 33.2889L45.2664 33.2879C36.2612 33.2879 28.9604 40.5886 28.9604 49.5939C28.9575 52.4322 29.699 55.2217 31.111 57.684C33.9217 62.5908 39.2056 65.9002 45.2668 65.9002C51.3655 65.9002 56.6794 62.5487 59.4756 57.5895L59.4077 57.7084L73.6393 65.953C68.0362 75.6494 57.6046 82.208 45.6315 82.3386L45.2668 82.3407C33.1144 82.3407 22.508 75.7211 16.857 65.8902C14.0984 61.091 12.52 55.5272 12.52 49.5939C12.52 31.5089 27.1808 16.8474 45.2664 16.8474L45.2668 16.8478Z" fill="white"/>
</svg>

<svg xmlns="http://www.w3.org/2000/svg" width="80" height="80" viewBox="0 0 90 100" fill="none" xmlns:v="https://vecta.io/nano"><path d="M89.082 29.197c-.001-1.665-.357-3.136-1.077-4.398-.707-1.242-1.767-2.283-3.187-3.105L49.625 1.419c-3.161-1.825-6.226-1.758-9.363.093L5.257 21.689C2.389 23.35.993 25.891.992 29.194l-.004 40.8c0 1.628.342 3.071 1.03 4.315.708 1.279 1.782 2.348 3.235 3.19l35.008 20.177c3.139 1.852 6.204 1.918 9.365.093l35.196-20.275c1.454-.841 2.528-1.911 3.235-3.189.687-1.244 1.03-2.686 1.03-4.315l-.005-40.793z" fill="#a179dc"/><path d="M45.172 49.461L2.018 74.309c.708 1.279 1.782 2.349 3.235 3.19l35.008 20.177c3.139 1.852 6.203 1.918 9.365.093l35.196-20.275c1.454-.841 2.528-1.911 3.235-3.189L45.172 49.461z" fill="#280068"/><path d="M89.082 29.197c-.001-1.665-.357-3.136-1.077-4.398L45.172 49.462l42.885 24.844c.687-1.244 1.029-2.686 1.03-4.315l-.004-40.793z" fill="#390091"/><path d="M70.58 40.173v4.644h4.644v-4.644h2.322v4.644h4.644v2.322h-4.644v4.644h4.644v2.322h-4.644v4.645h-2.322v-4.645H70.58v4.645h-2.322v-4.645h-4.644v-2.322h4.644V47.14h-4.644v-2.322h4.644v-4.644h2.322zm4.644 6.966H70.58v4.645h4.644v-4.645zM45.267 16.848c12.114 0 22.691 6.579 28.356 16.358l-.055-.094-14.253 8.207c-2.808-4.754-7.956-7.963-13.861-8.029l-.186-.001A16.31 16.31 0 0 0 28.96 49.594a16.23 16.23 0 0 0 2.151 8.09c2.811 4.907 8.095 8.216 14.156 8.216 6.099 0 11.413-3.352 14.209-8.311l-.068.119 14.232 8.245c-5.603 9.696-16.035 16.255-28.008 16.386l-.365.002c-12.152 0-22.759-6.62-28.41-16.451-2.759-4.799-4.337-10.363-4.337-16.296 0-18.085 14.661-32.746 32.746-32.746h0z" fill="#fff"/></svg>
